X:1
T:St. Enoch, 87.87.47
T:St. Enoch, 87.87.47
T:Walter Bond Gilbert, 1883
T:Public Domain Courtesy of the Cyber Hymnal™
C:Walter Bond Gilbert, 1883
Z:Public Domain
Z:Courtesy of the Cyber Hymnal™
%%score ( 1 2 ) ( 3 4 )
L:1/8
Q:1/4=110
M:2/4
K:E
V:1 treble 
V:2 treble 
V:3 bass 
V:4 bass 
V:1
 [EB]3 [EB] | [EB]2 [EB]2 | [Ec]2 [Ee]2 | [EB]4 [EG]2 z2 | [EG]3 [DF] | E2 [DF]2 | [EG]2 [E^A]2 | %7
 [DB]4 | [EB]3 [EB] | [EB]2 [EB]2 | [Ec]2 [Ee]2 | [EB]4 | [EG]2 z2 | [EG]3 [DF] | E2 [DF]2 | %15
 [EG]2 [E^A]2 | [DB]4 | [EB]3 [EB] | [Ec]4 | [EB]2 z2 | [EB]3 [EB] | [Ec]4 | [EB]2 z2 | %23
 [EG]3 [EG] | [FA]2 [EG]2 | [EF]2 [DF]2 | E4 |] x4 |] %28
V:2
 x4 | x4 | x4 | x8 | x4 | E2 x2 | x4 | x4 | x4 | x4 | x4 | x4 | x4 | x4 | E2 x2 | x4 | x4 | x4 | %18
 x4 | x4 | x4 | x4 | x4 | x4 | x4 | x4 | E4 |] x4 |] %28
V:3
 [E,G,]3 [E,G,] | [E,G,]2 [E,G,]2 | A,2 [A,C]2 | [G,B,]4 x4 | [E,B,]2 z2 | [E,B,]3 [F,B,] | %6
 [G,B,]2 [F,B,]2 | [E,B,]2 [C,E,]2 | [B,,F,]4 | [E,G,]3 [E,G,] | [E,G,]2 [E,G,]2 | A,2 [A,C]2 | %12
 [G,B,]4 | [E,B,]2 z2 | [E,B,]3 [F,B,] | [G,B,]2 [F,B,]2 | [E,B,]2 [C,E,]2 | [B,,F,]4 | %18
 [E,G,]3 [E,G,] | A,4 | [E,G,]2 z2 | [E,G,]3 [E,G,] | A,4 | [E,G,]2 z2 | [E,B,]3 [E,B,] | %25
 [D,B,]2 [E,B,]2 | [A,,C]2 (B,A,) |] [E,G,]4 |] %28
V:4
 x4 | x4 | A,2 x2 | x8 | x4 | x4 | x4 | x4 | x4 | x4 | x4 | A,2 x2 | x4 | x4 | x4 | x4 | x4 | x4 | %18
 x4 | A,4 | x4 | x4 | A,4 | x4 | x4 | x4 | x2 B,,2 |] x4 |] %28

